X:22
T:An Buachaill Dreoite
T:Withered Boy, The
T:Ailing Boy, The
R:fling
H:See also #24, jig#264
Z:id:hn-hf-22
M:C|
L:1/8
K:G
DGGB d2GB | d2GF GBAF | DGGB d2GB | dBcA FG (3AGF |
DGGB d2GF | DGGF G3e | fgaf gbag |1 fdcA G2GF :|2 fdcA G3A ||
|: B2BG cBcA | d2GF G2GA | B2BG cBcA | dADE F2GA | 
B2BG c2cA | d^cde f2 (3def | g2gf gbag |1 fdcA G2dc :|2 fdcA G3F ||
P:variations
|: DGGB dBGB | d2G2 GA (3GFE | DGGB dBGB | dBcA FG (3AGF |
DGGB dBGF | D2GF G3e | fgaf gbag |1 fdcA G2GF :|2 fdcA G3A ||
|: B2BG cBcA | d2GF G2GA | B2BG cBcA | dBcA =F2GA | 
B2BG c2cA | d^cde f2 (3def | g2gf gbag |1 fdcA G2dc :|2 fdcA G3F ||

